X:4388
T:Morse Avenue
O:england
C:Liz Carroll
R:reel
D:Nomos: I Won't Be Afraid Any More
D:Sean Smyth: The Blue Fiddle
M:C|
K:D
d2dA BAFE|DEFA BAFA|BF~F2 BFBd|AB~B2 defe|
d2dA BAFE|DEFA BAFA|dedA BAFB|AFEF DEFA:|
dffe ~f3g|fedf edBA|dffe fede|faag agfe|
dffe ~f3g|fedf edBc|~d3A BAFB|AFEF DEFA|
dffe ~f3g|fedf edBA|dffe fede|faag a2fa|
bafb afeg|fedf edBc|~d3A BAFB|AFEF DEFA||
"variations"
d2dA BAFE|DA,DB BAFA|BF~F2 AB~B2|FB~B2 defe|
d2dA BAFE|DA,DB BAFA|dA~A2 BAFB|1 AFAB d2dc:|2 AFAB d2AB||
df~f2 fedf|af~f2 fedc|df~f2 fede|~f3g a2fe|
~d3e fedf|af~f2 fedc|dA~A2 BAFB|AFAB d2AB|
df~f2 fedf|af~f2 fedc|df~f2 fede|~f3g a2fa|
bf~f2 afec|d2df edcA|d2~d2 BAFB|AFAB d2dc||


